images/icon-blockquote.svg

<svg width="60" height="47" viewBox="0 0 60 47" fill="none" xmlns="http://www.w3.org/2000/svg">
<g clip-path="url(#clip0_590_44)">
<mask id="mask0_590_44" style="mask-type:luminance" maskUnits="userSpaceOnUse" x="0" y="0" width="60" height="47">
<path d="M60 0H0V47H60V0Z" fill="white"/>
</mask>
<g mask="url(#mask0_590_44)">
<mask id="mask1_590_44" style="mask-type:luminance" maskUnits="userSpaceOnUse" x="0" y="0" width="60" height="47">
<path d="M60 0H0V47H60V0Z" fill="white"/>
</mask>
<g mask="url(#mask1_590_44)">
<mask id="mask2_590_44" style="mask-type:luminance" maskUnits="userSpaceOnUse" x="0" y="0" width="60" height="47">
<path d="M60 0H0V47H60V0Z" fill="white"/>
</mask>
<g mask="url(#mask2_590_44)">
<mask id="mask3_590_44" style="mask-type:luminance" maskUnits="userSpaceOnUse" x="0" y="0" width="60" height="47">
<path d="M60 0H0V47H60V0Z" fill="white"/>
</mask>
<g mask="url(#mask3_590_44)">
<mask id="mask4_590_44" style="mask-type:luminance" maskUnits="userSpaceOnUse" x="0" y="0" width="60" height="47">
<path d="M60 0H0V46.4151H60V0Z" fill="white"/>
</mask>
<g mask="url(#mask4_590_44)">
<mask id="mask5_590_44" style="mask-type:luminance" maskUnits="userSpaceOnUse" x="0" y="0" width="60" height="47">
<path d="M60 0H0V46.4151H60V0Z" fill="white"/>
</mask>
<g mask="url(#mask5_590_44)">
<path d="M5.32741 42.6361C1.99779 38.9735 0 34.978 0 28.3187C0 16.665 8.32408 6.34305 19.9778 1.01562H20.1659C22.3933 1.01562 23.882 3.30997 22.9745 5.34416C11.9866 11.3375 9.65594 18.9957 8.99002 23.9902C10.6548 22.9912 12.9856 22.6583 15.3163 22.9912C21.3096 23.6572 25.9712 28.3187 25.9712 34.6449C25.9712 37.6417 24.6393 40.6384 22.6415 42.9691C20.3108 45.2998 17.647 46.2987 14.3175 46.2987C10.6548 46.2987 7.3252 44.6339 5.32741 42.6361ZM38.6238 42.6361C35.2941 38.9735 33.2964 34.978 33.2964 28.3187C33.2964 16.665 41.6204 6.34305 53.2741 1.01562L54.0301 1.11803C56.178 1.40896 57.4576 3.66667 56.6038 5.65891C45.616 11.6523 42.9523 18.9957 42.2863 23.9902C43.9511 22.9912 46.282 22.6583 48.6127 22.9912C54.606 23.6572 59.2674 28.3187 59.2674 34.6449C59.2674 37.6417 57.9357 40.6384 55.9379 42.9691C53.9401 45.2998 50.9434 46.2987 47.6137 46.2987C43.9511 46.2987 40.6216 44.6339 38.6238 42.6361Z" fill="#0E384C"/>
</g>
</g>
</g>
</g>
</g>
</g>
</g>
<defs>
<clipPath id="clip0_590_44">
<rect width="60" height="47" fill="white"/>
</clipPath>
</defs>
</svg>

<svg xmlns="http://www.w3.org/2000/svg" width="60" height="47" fill="none" viewBox="0 0 60 47"><g clip-path="url(#a)"><mask id="c" width="60" height="47" x="0" y="0" maskUnits="userSpaceOnUse" style="mask-type:luminance"><use href="#b"/></mask><g mask="url(#c)"><mask id="d" width="60" height="47" x="0" y="0" maskUnits="userSpaceOnUse" style="mask-type:luminance"><use href="#b"/></mask><g mask="url(#d)"><mask id="e" width="60" height="47" x="0" y="0" maskUnits="userSpaceOnUse" style="mask-type:luminance"><use href="#b"/></mask><g mask="url(#e)"><mask id="f" width="60" height="47" x="0" y="0" maskUnits="userSpaceOnUse" style="mask-type:luminance"><use href="#b"/></mask><g mask="url(#f)"><mask id="h" width="60" height="47" x="0" y="0" maskUnits="userSpaceOnUse" style="mask-type:luminance"><use href="#g"/></mask><g mask="url(#h)"><mask id="i" width="60" height="47" x="0" y="0" maskUnits="userSpaceOnUse" style="mask-type:luminance"><use href="#g"/></mask><g mask="url(#i)"><path fill="#0e384c" d="M5.327 42.636C1.997 38.973 0 34.978 0 28.32 0 16.665 8.324 6.343 19.978 1.016h.188c2.227 0 3.716 2.294 2.808 4.328C11.987 11.338 9.657 18.996 8.99 23.99c1.665-.999 3.996-1.332 6.326-.999 5.994.666 10.655 5.328 10.655 11.654 0 2.997-1.332 5.993-3.33 8.324-2.33 2.33-4.994 3.33-8.323 3.33-3.663 0-6.993-1.665-8.99-3.663m33.297 0c-3.33-3.663-5.328-7.658-5.328-14.317 0-11.654 8.324-21.976 19.978-27.303l.756.102a3.28 3.28 0 0 1 2.574 4.54C45.616 11.653 42.952 18.997 42.286 23.99c1.665-.999 3.996-1.332 6.327-.999 5.993.666 10.654 5.328 10.654 11.654 0 2.997-1.331 5.993-3.33 8.324-1.997 2.33-4.994 3.33-8.323 3.33-3.663 0-6.992-1.665-8.99-3.663"/></g></g></g></g></g></g></g><defs><path id="b" fill="#fff" d="M60 0H0v47h60z"/><path id="g" fill="#fff" d="M60 0H0v46.415h60z"/><clipPath id="a"><path fill="#fff" d="M0 0h60v47H0z"/></clipPath></defs></svg>
